Numix-GalliumOS/16/actions/poedit-fuzzy.svg

<?xml version="1.0" encoding="UTF-8" standalone="no"?>
<svg
   xmlns:dc="http://purl.org/dc/elements/1.1/"
   xmlns:cc="http://creativecommons.org/ns#"
   xmlns:rdf="http://www.w3.org/1999/02/22-rdf-syntax-ns#"
   xmlns:svg="http://www.w3.org/2000/svg"
   xmlns="http://www.w3.org/2000/svg"
   xmlns:sodipodi="http://sodipodi.sourceforge.net/DTD/sodipodi-0.dtd"
   xmlns:inkscape="http://www.inkscape.org/namespaces/inkscape"
   width="16"
   viewBox="0 0 16 16"
   height="16"
   id="svg2"
   version="1.1"
   inkscape:version="0.91 r13725"
   sodipodi:docname="poedit-fuzzy0.svg">
  <metadata
     id="metadata14">
    <rdf:RDF>
      <cc:Work
         rdf:about="">
        <dc:format>image/svg+xml</dc:format>
        <dc:type
           rdf:resource="http://purl.org/dc/dcmitype/StillImage" />
        <dc:title></dc:title>
      </cc:Work>
    </rdf:RDF>
  </metadata>
  <defs
     id="defs12" />
  <sodipodi:namedview
     pagecolor="#ffffff"
     bordercolor="#666666"
     borderopacity="1"
     objecttolerance="10"
     gridtolerance="10"
     guidetolerance="10"
     inkscape:pageopacity="0"
     inkscape:pageshadow="2"
     inkscape:window-width="1366"
     inkscape:window-height="704"
     id="namedview10"
     showgrid="false"
     inkscape:zoom="1"
     inkscape:cx="14.769257"
     inkscape:cy="8"
     inkscape:window-x="0"
     inkscape:window-y="27"
     inkscape:window-maximized="1"
     inkscape:current-layer="svg2">
    <inkscape:grid
       type="xygrid"
       id="grid4142" />
  </sodipodi:namedview>
  <g
     style="fill-rule:evenodd"
     id="g4-7">
    <path
       inkscape:connector-curvature="0"
       style="fill:#dc322f"
       d="m 16,8.0010954 a 8.0000001,8.0000001 0 0 1 -16.00000005,0 8.0000001,8.0000001 0 1 1 16.00000005,0 z"
       id="path6-6" />
  </g>
  <path
     style="color:#000000;font-style:normal;font-variant:normal;font-weight:normal;font-stretch:normal;font-size:medium;line-height:normal;font-family:sans-serif;text-indent:0;text-align:start;text-decoration:none;text-decoration-line:none;text-decoration-style:solid;text-decoration-color:#000000;letter-spacing:normal;word-spacing:normal;text-transform:none;direction:ltr;block-progression:tb;writing-mode:lr-tb;baseline-shift:baseline;text-anchor:start;white-space:normal;clip-rule:nonzero;display:inline;overflow:visible;visibility:visible;opacity:1;isolation:auto;mix-blend-mode:normal;color-interpolation:sRGB;color-interpolation-filters:linearRGB;solid-color:#000000;solid-opacity:1;fill:#ffffff;fill-opacity:0.90196078;fill-rule:evenodd;stroke:none;stroke-width:2.5;stroke-linecap:butt;stroke-linejoin:round;stroke-miterlimit:4;stroke-dasharray:none;stroke-dashoffset:0;stroke-opacity:1;color-rendering:auto;image-rendering:auto;shape-rendering:auto;text-rendering:auto;enable-background:accumulate"
     d="m 6.3446881,4.8012291 c -1.015328,-0.031158 -2.029274,0.5295875 -3.144688,1.7276215 l 1.311298,1.0358279 C 5.4680591,6.537049 6.0082461,6.3824028 6.2880271,6.3909892 6.5678081,6.3995692 6.9288361,6.624485 7.4468809,7.021925 7.9649241,7.4193649 8.6399841,7.9893345 9.6553121,8.0204918 10.67064,8.0516518 11.684586,7.4909057 12.8,6.2928708 L 11.488702,5.2570431 C 10.531941,6.2846724 9.9917545,6.4393186 9.7119737,6.430733 9.4321921,6.422149 9.0711633,6.1972372 8.5531201,5.799797 8.0350761,5.402357 7.3600161,4.8323873 6.3446881,4.8012291 Z m 0,3.179519 c -1.015328,-0.03116 -2.029274,0.5295869 -3.144688,1.7276223 l 1.311298,1.0345846 c 0.956761,-1.0276276 1.496948,-1.1822756 1.776729,-1.1736886 0.279781,0.0086 0.640809,0.233495 1.1588538,0.6309346 0.5180432,0.39744 1.1931032,0.96741 2.2084312,0.998569 C 10.67064,11.22993 11.684586,10.669182 12.8,9.4711478 L 11.488702,8.4365622 C 10.531941,9.464191 9.9917545,9.6188384 9.7119737,9.6102514 9.4321921,9.6016674 9.0711633,9.3767566 8.5531201,8.9793158 8.0350761,8.5818766 7.3600161,8.0119062 6.3446881,7.9807481 Z"
     id="path4144-0"
     inkscape:connector-curvature="0" />
</svg>

<svg xmlns="http://www.w3.org/2000/svg" viewBox="0 0 16 16">
 <g style="fill-rule:evenodd">
  <path d="m 16 8 a 8 8 0 0 1 -16 0 8 8 0 1 1 16 0 z" style="fill:#dc322f"/>
 </g>
 <path d="m 6.345 4.801 c -1.015 -0.031 -2.029 0.53 -3.145 1.728 l 1.311 1.036 c 0.957 -1.028 1.497 -1.182 1.777 -1.174 0.28 0.009 0.641 0.233 1.159 0.631 0.518 0.397 1.193 0.967 2.208 0.999 1.015 0.031 2.029 -0.53 3.145 -1.728 l -1.311 -1.036 c -0.957 1.028 -1.497 1.182 -1.777 1.174 -0.28 -0.009 -0.641 -0.233 -1.159 -0.631 -0.518 -0.397 -1.193 -0.967 -2.208 -0.999 m 0 3.18 c -1.015 -0.031 -2.029 0.53 -3.145 1.728 l 1.311 1.035 c 0.957 -1.028 1.497 -1.182 1.777 -1.174 0.28 0.009 0.641 0.233 1.159 0.631 0.518 0.397 1.193 0.967 2.208 0.999 c 1.015 0.031 2.029 -0.53 3.145 -1.728 l -1.311 -1.035 c -0.957 1.028 -1.497 1.182 -1.777 1.174 -0.28 -0.009 -0.641 -0.233 -1.159 -0.631 -0.518 -0.397 -1.193 -0.967 -2.208 -0.999" mix-blend-mode="normal" isolation="auto" white-space="normal" solid-opacity="1" solid-color="#000000" style="visibility:visible;shape-rendering:auto;color-interpolation-filters:linearRGB;fill:#fff;opacity:1;image-rendering:auto;fill-opacity:0.902;stroke:none;display:inline;color:#000;fill-rule:evenodd;color-rendering:auto;color-interpolation:sRGB"/>
</svg>
